packages/match-logos/mono/svg/avvo.svg

<svg fill="none" height="22" viewBox="0 0 82 22" width="82" xmlns="http://www.w3.org/2000/svg" xmlns:xlink="http://www.w3.org/1999/xlink"><clipPath id="a"><path d="m0 0h81.95v22h-81.95z"/></clipPath><g clip-path="url(#a)"><path d="m18.2545 21.8735-.3135-3.916h-9.79c-.33733.6306-.671 1.2723-1.001 1.925-.33.6526-.61417 1.3163-.8525 1.991h-6.2975c.966625-2.4341 2.1618-4.771 3.5695-6.9795 1.51725-2.4375 3.23948-4.7411 5.148-6.88603 1.7776-2.02112 3.7797-3.83314 5.9675-5.401 1.7879-1.35727 3.8829-2.252702 6.0995-2.6069948.4107-.0362776.8244.0123998 1.2155.1429998.1731.029438.3328.111939.4569.236091.1242.124152.2067.283817.2361.456909l1.947 21.037525zm-1.386-14.97103c-1.0322.85864-1.9941 1.79847-2.8765 2.8105-1.0934 1.23563-2.1162 2.53203-3.0635 3.88303h6.6715l-.55-6.63303zm12.8315 15.09753c-.2539.0003-.5038-.0641-.726-.187-.1206-.0725-.2214-.1737-.2934-.2947-.072-.1209-.1129-.2577-.1191-.3983l-1.5235-15.66953h5.687l.825 9.85053h.187c1.2094-1.0362 2.17-2.3314 2.8105-3.7895.8494-1.92285 1.4056-3.9622 1.65-6.05003h5.8355c-.1097 1.94986-.5485 3.8671-1.298 5.67053-.7658 1.9149-1.7971 3.7127-3.0635 5.3405-1.2324 1.5915-2.7484 2.9415-4.4715 3.982-1.655 1.0141-3.559 1.5491-5.5 1.5455zm18.953 0c-.2539.0003-.5038-.0641-.726-.187-.1209-.0721-.222-.1733-.294-.2943s-.1128-.258-.1185-.3987l-1.5235-15.66953h5.7475l.759 9.85603h.253c1.2061-1.039 2.1629-2.336 2.7995-3.795.8546-1.91847 1.3986-3.96066 1.6115-6.05003h5.874c-.1486 1.95227-.5956 3.87021-1.3255 5.68703-.749 1.923-1.7816 3.7231-3.0635 5.3405-1.2444 1.5863-2.7648 2.9352-4.488 3.982-1.6615 1.0113-3.5715 1.5407-5.5165 1.529zm24.123-16.61553c1.1582-.04433 2.3132.14843 3.3942.56647 1.0811.41803 2.0653 1.05251 2.8923 1.86453.7823.75317 1.3976 1.66234 1.806 2.66863.4084 1.0062.6007 2.087.5645 3.1724.0026 1.1164-.2427 2.2195-.7183 3.2297-.4755 1.0101-1.1695 1.902-2.0317 2.6113-1.7329 1.5825-4.0003 2.4509-6.347 2.431-1.1469.0324-2.2885-.1661-3.3572-.5837-1.0686-.4176-2.0423-1.0458-2.8633-1.8473-.798-.7442-1.4278-1.6503-1.8471-2.6577-.4192-1.0074-.6183-2.0927-.5839-3.1833.0186-1.1189.2795-2.2204.7647-3.2287.4852-1.00838 1.1832-1.8996 2.0458-2.61233 1.7118-1.57403 3.9556-2.44245 6.281-2.431zm-.176 11.81403c.4657.0044.9275-.0841 1.3586-.2603.431-.1761.8226-.4364 1.1519-.7657s.5896-.7209.7658-1.152c.1762-.431.2646-.8929.2602-1.3585.0158-.4621-.0695-.922-.25-1.3476s-.4518-.8066-.795-1.1164c-.6583-.6165-1.5291-.9554-2.431-.946-.9232-.0185-1.8178.3205-2.497.946-.353.3291-.6295.7316-.8101 1.1792s-.2607.9293-.2349 1.4113c-.0371.4583.0319.919.2017 1.3463.1698.4274.4358.8098.7773 1.1177.6806.6268 1.5774.9658 2.5025.946z" fill="#1f304c"/></g></svg>

<svg width="82" height="22" viewBox="0 0 82 22" fill="none" xmlns="http://www.w3.org/2000/svg">
<g clip-path="url(#clip0)">
<path d="M18.2545 21.8735L17.941 17.9575H8.151C7.81367 18.5881 7.48 19.2298 7.15 19.8825C6.82 20.5351 6.53583 21.1988 6.2975 21.8735H0C0.966625 19.4394 2.1618 17.1025 3.5695 14.894C5.08675 12.4565 6.80898 10.1529 8.7175 8.00797C10.4951 5.98685 12.4972 4.17483 14.685 2.60697C16.4729 1.2497 18.5679 0.354268 20.7845 -2.47993e-05C21.1952 -0.0363024 21.6089 0.012375 22 0.142975C22.1731 0.172413 22.3328 0.254914 22.4569 0.379066C22.5811 0.503218 22.6636 0.662883 22.693 0.835975L24.64 21.8735H18.2545ZM16.8685 6.90247C15.8363 7.76111 14.8744 8.70094 13.992 9.71297C12.8986 10.9486 11.8758 12.245 10.9285 13.596H17.6L17.05 6.96297L16.8685 6.90247ZM29.7 22C29.4461 22.0003 29.1962 21.9359 28.974 21.813C28.8534 21.7405 28.7526 21.6393 28.6806 21.5183C28.6086 21.3974 28.5677 21.2606 28.5615 21.12L27.038 5.45047H32.725L33.55 15.301H33.737C34.9464 14.2648 35.907 12.9696 36.5475 11.5115C37.3969 9.58865 37.9531 7.5493 38.1975 5.46147H44.033C43.9233 7.41133 43.4845 9.32857 42.735 11.132C41.9692 13.0469 40.9379 14.8447 39.6715 16.4725C38.4391 18.064 36.9231 19.414 35.2 20.4545C33.545 21.4686 31.641 22.0036 29.7 22ZM48.653 22C48.3991 22.0003 48.1492 21.9359 47.927 21.813C47.8061 21.7409 47.705 21.6397 47.633 21.5187C47.561 21.3977 47.5202 21.2607 47.5145 21.12L45.991 5.45047H51.7385L52.4975 15.3065H52.7505C53.9566 14.2675 54.9134 12.9705 55.55 11.5115C56.4046 9.59303 56.9486 7.55084 57.1615 5.46147H63.0355C62.8869 7.41374 62.4399 9.33168 61.71 11.1485C60.961 13.0715 59.9284 14.8716 58.6465 16.489C57.4021 18.0753 55.8817 19.4242 54.1585 20.471C52.497 21.4823 50.587 22.0117 48.642 22H48.653ZM72.776 5.38447C73.9342 5.34014 75.0892 5.5329 76.1702 5.95094C77.2513 6.36897 78.2355 7.00345 79.0625 7.81547C79.8448 8.56864 80.4601 9.47781 80.8685 10.4841C81.2769 11.4903 81.4692 12.5711 81.433 13.6565C81.4356 14.7729 81.1903 15.876 80.7147 16.8862C80.2392 17.8963 79.5452 18.7882 78.683 19.4975C76.9501 21.08 74.6827 21.9484 72.336 21.9285C71.1891 21.9609 70.0475 21.7624 68.9788 21.3448C67.9102 20.9272 66.9365 20.299 66.1155 19.4975C65.3175 18.7533 64.6877 17.8472 64.2684 16.8398C63.8492 15.8324 63.6501 14.7471 63.6845 13.6565C63.7031 12.5376 63.964 11.4361 64.4492 10.4278C64.9344 9.41942 65.6324 8.5282 66.495 7.81547C68.2068 6.24144 70.4506 5.37302 72.776 5.38447ZM72.6 17.1985C73.0657 17.2029 73.5275 17.1144 73.9586 16.9382C74.3896 16.7621 74.7812 16.5018 75.1105 16.1725C75.4398 15.8432 75.7001 15.4516 75.8763 15.0205C76.0525 14.5895 76.1409 14.1276 76.1365 13.662C76.1523 13.1999 76.067 12.74 75.8865 12.3144C75.706 11.8888 75.4347 11.5078 75.0915 11.198C74.4332 10.5815 73.5624 10.2426 72.6605 10.252C71.7373 10.2335 70.8427 10.5725 70.1635 11.198C69.8105 11.5271 69.534 11.9296 69.3534 12.3772C69.1728 12.8248 69.0927 13.3065 69.1185 13.7885C69.0814 14.2468 69.1504 14.7075 69.3202 15.1348C69.49 15.5622 69.756 15.9446 70.0975 16.2525C70.7781 16.8793 71.6749 17.2183 72.6 17.1985Z" fill="#1F304C"/>
</g>
<defs>
<clipPath id="clip0">
<rect width="81.95" height="22" fill="white"/>
</clipPath>
</defs>
</svg>
